X:1
T:Title
%%score { ( 1 3 ) | 2 }
L:1/8
M:4/4
K:C
V:1 treble nm="Grand Piano"
V:3 treble 
V:2 bass 
V:1
 z4 z2[Q:1/4=94] [CE]>[DF] | [EG]>[_E^F] [=FA]>[=EG] E>C E>G |[M:3/4] A>c B>A [EG]2 | %3
[M:1/4] [CE]>[DF] |[M:4/4] [EG]>[EG] [EG]>[EG] [Ec]>[EA] E>C |[M:3/4] D>D ^F>F [B,G]2 | %6
[M:1/4] [CE]>[DF] |[M:4/4] [EG]>[_E^F] [=FA]>[=EG] E>C E>G |[M:3/4] A>c B>A [EG]2 | %9
[M:1/4] [EG]>[EG] |[M:4/4] [Ec]>[Ec] [Ec]>d e>d c>A |[M:3/4] G>c d>B [Ec]2 |[M:1/4] E>F | %13
[M:4/4] G6 z2 | c6 z2 | B6 z2 |[M:3/4] G6 |[M:1/4] E>[DF] | %18
[M:4/4] [EG]>[_E^F] [=FA]>[=EG] E>C E>G |[M:3/4] A>c B>A [EG]2 |[M:1/4] [EG]>[EG] | %21
[M:4/4] [Ec]>[Ec] [Ec]>d e>d c>A |[M:7/4] G>cd>B [Ec]2 z2 z2 z4 |] %23
V:2
 z4 z2 [C,G,]>[C,G,] | [C,C]>[C,C] [C,C]>[C,C] [C,G,C]>[C,G,] [G,C]>[G,CE] | %2
[M:3/4] [F,CF]>[F,A,F] [F,B,F]>[F,CF] [C,C]2 |[M:1/4] [C,G,]>[C,G,] | %4
[M:4/4] [C,C]>[C,C] [C,C]>[C,C] [C,G,]>[C,C] [C,G,C]>[E,G,] | %5
[M:3/4] [D,G,B,]>[D,G,B,] [D,A,C]>[D,A,C] [G,,G,]2 |[M:1/4] [C,G,]>[C,G,] | %7
[M:4/4] [C,C]>[C,C] [C,C]>[C,C] [C,G,C]>[E,G,] [G,C]>[G,CE] | %8
[M:3/4] [F,CF]>[F,A,F] [F,B,F]>[F,CF] [C,C]2 |[M:1/4] [C,C]>[C,C] | %10
[M:4/4] [C,G,]>[C,G,] [C,G,]>[K:treble][G,B,F] [CG]>[G,B,F] [A,CE]>[F,CF] | %11
[M:3/4] [G,CE]>[G,E] [G,B,F]>[G,F][K:bass] [C,G,]2 |[M:1/4] z2 |[M:4/4] z2 [C,C]>[C,C] [C,C]2 z2 | %14
 z [C,G,] [C,G,]>[C,G,] [C,G,]2 z2 | z2 [D,G,]>[D,G,] [D,G,]2 z2 | %16
[M:3/4] z [C,C] [C,C][C,C] [C,C]2 |[M:1/4] [C,G,C]>[C,G,] | %18
[M:4/4] [C,C]>[C,C] [C,C]>[C,C] [C,G,C]>[E,G,] [G,C]>[G,CE] | %19
[M:3/4] [F,CF]>[F,A,F] [F,B,F]>[F,CF] [C,C]2 |[M:1/4] [C,C]>[C,C] | %21
[M:4/4] [C,G,]>[C,G,] [C,G,]>[K:treble][G,B,F] [CG]>[G,B,F] [A,CE]>[F,CF] | %22
[M:7/4] [G,CE]>[G,E][G,B,F]>[G,F][K:bass] [C,G,]2 z2 z2 z4 |] %23
V:3
 x8 | x8 |[M:3/4] x6 |[M:1/4] x2 |[M:4/4] x8 |[M:3/4] x6 |[M:1/4] x2 |[M:4/4] x8 |[M:3/4] x6 | %9
[M:1/4] x2 |[M:4/4] x8 |[M:3/4] x6 |[M:1/4] x2 |[M:4/4] z2 E>E E>G A>G | z E E>E E2 G>c | %15
 z2 F>F F>A F>A |[M:3/4] z E EE E2 |[M:1/4] x2 |[M:4/4] x8 |[M:3/4] x6 |[M:1/4] x2 |[M:4/4] x8 | %22
[M:7/4] x14 |] %23

